packages/icons/svg/mono/geniet-coupon.svg

<svg width="24" height="24" viewBox="-2.88 -2.88 29.76 29.76" fill="none" xmlns="http://www.w3.org/2000/svg">
<mask id="path-1-inside-1_3062_8863" fill="white">
<path d="M20 4C21.6569 4 23 5.34315 23 7V10C21.8954 10 21 10.8954 21 12C21 13.1046 21.8954 14 23 14V17C23 18.6569 21.6569 20 20 20H4C2.34315 20 1 18.6569 1 17V14C2.10457 14 3 13.1046 3 12C3 10.8954 2.10457 10 1 10V7C1 5.34315 2.34315 4 4 4H20Z"/>
</mask>
<path d="M23 10V11.5C23.8284 11.5 24.5 10.8284 24.5 10H23ZM23 14H24.5C24.5 13.1716 23.8284 12.5 23 12.5V14ZM20 20V21.5V21.5V20ZM1 14V12.5C0.171573 12.5 -0.5 13.1716 -0.5 14H1ZM1 10H-0.5C-0.5 10.8284 0.171573 11.5 1 11.5L1 10ZM4 4V2.5V2.5V4ZM20 4V5.5C20.8284 5.5 21.5 6.17157 21.5 7H23H24.5C24.5 4.51472 22.4853 2.5 20 2.5V4ZM23 7H21.5V10H23H24.5V7H23ZM23 10V8.5C21.067 8.5 19.5 10.067 19.5 12H21H22.5C22.5 11.7239 22.7239 11.5 23 11.5V10ZM21 12H19.5C19.5 13.933 21.067 15.5 23 15.5V14V12.5C22.7239 12.5 22.5 12.2761 22.5 12H21ZM23 14H21.5V17H23H24.5V14H23ZM23 17H21.5C21.5 17.8284 20.8284 18.5 20 18.5V20V21.5C22.4853 21.5 24.5 19.4853 24.5 17H23ZM20 20V18.5H4V20V21.5H20V20ZM4 20V18.5C3.17157 18.5 2.5 17.8284 2.5 17H1H-0.5C-0.5 19.4853 1.51472 21.5 4 21.5V20ZM1 17H2.5V14H1H-0.5V17H1ZM1 14V15.5C2.933 15.5 4.5 13.933 4.5 12H3H1.5C1.5 12.2761 1.27614 12.5 1 12.5V14ZM3 12H4.5C4.5 10.067 2.933 8.5 1 8.5V10V11.5C1.27614 11.5 1.5 11.7239 1.5 12H3ZM1 10H2.5V7H1H-0.5V10H1ZM1 7H2.5C2.5 6.17157 3.17157 5.5 4 5.5V4V2.5C1.51472 2.5 -0.5 4.51472 -0.5 7H1ZM4 4V5.5H20V4V2.5H4V4Z" fill="currentColor" mask="url(#path-1-inside-1_3062_8863)"/>
<path d="M12.1518 16.178C12.0993 16.178 12.0467 16.178 11.9942 16.178C11.4387 16.156 10.7781 16.1267 9.98248 15.6504C8.15846 14.5584 7.98581 12.7116 8.00082 11.9715C8.02334 10.5424 8.67639 9.31123 9.80233 8.59303C11.1159 7.74293 13.4204 7.71362 14.9817 9.12069C15.342 9.44314 15.3645 9.98545 15.0342 10.3372C14.7039 10.689 14.141 10.711 13.7882 10.3885C12.9024 9.58971 11.5213 9.56039 10.7781 10.0367C10.1401 10.4471 9.78732 11.1433 9.77231 12.0008C9.7648 12.5577 9.89991 13.5764 10.9133 14.192C11.3111 14.4338 11.6189 14.4485 12.0092 14.4631C12.6998 14.4998 13.4354 14.1993 13.6155 13.8622C13.6981 13.7083 13.7356 13.5544 13.7281 13.3859V13.2979H12.3845C11.8966 13.2979 11.4988 12.9095 11.4988 12.4332C11.4988 11.9568 11.8966 11.5684 12.3845 11.5684H14.6139C15.1018 11.5684 15.4996 11.9568 15.4996 12.4332V13.3639C15.5071 13.7963 15.4095 14.2433 15.1918 14.6537C14.6514 15.687 13.2928 16.2 12.1668 16.2L12.1518 16.178Z" fill="currentColor"/>
</svg>

<svg xmlns="http://www.w3.org/2000/svg" width="24" height="24" fill="none" viewBox="0 0 24 24">
  <mask id="a" fill="#fff">
    <path d="M20 4a3 3 0 0 1 3 3v3a2 2 0 1 0 0 4v3a3 3 0 0 1-3 3H4a3 3 0 0 1-3-3v-3a2 2 0 1 0 0-4V7a3 3 0 0 1 3-3h16Z"/>
  </mask>
  <path fill="currentColor" d="M23 10v1.5a1.5 1.5 0 0 0 1.5-1.5H23Zm0 4h1.5a1.5 1.5 0 0 0-1.5-1.5V14Zm-3 6v1.5V20ZM1 14v-1.5A1.5 1.5 0 0 0-.5 14H1Zm0-4H-.5A1.5 1.5 0 0 0 1 11.5V10Zm3-6V2.5 4Zm16 0v1.5A1.5 1.5 0 0 1 21.5 7h3A4.5 4.5 0 0 0 20 2.5V4Zm3 3h-1.5v3h3V7H23Zm0 3V8.5a3.5 3.5 0 0 0-3.5 3.5h3a.5.5 0 0 1 .5-.5V10Zm-2 2h-1.5a3.5 3.5 0 0 0 3.5 3.5v-3a.5.5 0 0 1-.5-.5H21Zm2 2h-1.5v3h3v-3H23Zm0 3h-1.5a1.5 1.5 0 0 1-1.5 1.5v3a4.5 4.5 0 0 0 4.5-4.5H23Zm-3 3v-1.5H4v3h16V20ZM4 20v-1.5A1.5 1.5 0 0 1 2.5 17h-3A4.5 4.5 0 0 0 4 21.5V20Zm-3-3h1.5v-3h-3v3H1Zm0-3v1.5A3.5 3.5 0 0 0 4.5 12h-3a.5.5 0 0 1-.5.5V14Zm2-2h1.5A3.5 3.5 0 0 0 1 8.5v3a.5.5 0 0 1 .5.5H3Zm-2-2h1.5V7h-3v3H1Zm0-3h1.5A1.5 1.5 0 0 1 4 5.5v-3A4.5 4.5 0 0 0-.5 7H1Zm3-3v1.5h16v-3H4V4Z" mask="url(#a)"/>
  <path fill="currentColor" d="M12.152 16.178h-.158c-.555-.022-1.216-.051-2.012-.528-1.824-1.092-1.996-2.938-1.981-3.678.022-1.43.675-2.66 1.801-3.379 1.314-.85 3.618-.88 5.18.528.36.322.383.864.052 1.216a.895.895 0 0 1-1.246.052c-.886-.8-2.267-.829-3.01-.352-.638.41-.99 1.106-1.006 1.964-.007.557.128 1.575 1.141 2.191.398.242.706.256 1.096.271.69.037 1.426-.264 1.607-.6a.894.894 0 0 0 .112-.477v-.088h-1.344a.877.877 0 0 1-.885-.865c0-.476.398-.865.885-.865h2.23c.488 0 .886.389.886.865v.93c.007.433-.09.88-.308 1.29-.54 1.034-1.9 1.547-3.025 1.547l-.015-.022Z"/>
</svg>
